src/icons/wind-high.svg

<?xml version="1.0" encoding="UTF-8" standalone="no"?><svg viewBox="0 0 32 32" xmlns="http://www.w3.org/2000/svg" xmlns:xlink="http://www.w3.org/1999/xlink" xml:space="preserve" fill-rule="evenodd" clip-rule="evenodd" stroke-linejoin="round" stroke-miterlimit="2" fill="currentColor"><g transform="translate(1.76 -3.216)"><path d="M7.712 19.136a.894.894 0 0 1-.896-.896v-.032a5.435 5.435 0 0 1 5.44-5.44c.288 0 .544.032.8.096 1.088-1.696 2.944-2.688 4.96-2.688a5.895 5.895 0 0 1 5.76 4.512c.128.48-.192.96-.672 1.088s-.96-.192-1.088-.672c-.448-1.856-2.112-3.136-4.032-3.136-1.28 0-2.464.576-3.232 1.568.192.128.384.224.544.352a.92.92 0 0 1 .256 1.248.92.92 0 0 1-1.248.256c-.384-.256-.896-.544-1.44-.704-.224-.064-.448-.064-.64-.064-.608 0-1.184.16-1.696.416a3.65 3.65 0 0 0-1.888 3.2 1.8 1.8 0 0 1-.128.384c-.096.288-.416.512-.8.512m8.928.224c0 1.12-.928 2.048-2.048 2.048H3.712a.894.894 0 0 1-.896-.896c0-.512.416-.896.896-.896h10.88a.25.25 0 0 0 .256-.256c0-.16-.096-.256-.256-.256a.894.894 0 0 1-.896-.896c0-.48.416-.896.896-.896 1.12 0 2.048.928 2.048 2.048m1.824 4.8c1.12 0 2.048.928 2.048 2.048a2.04 2.04 0 0 1-2.048 2.048.894.894 0 0 1-.896-.896c0-.48.416-.896.896-.896a.25.25 0 0 0 .256-.256.24.24 0 0 0-.16-.224h-8.288a.894.894 0 0 1-.896-.896c0-.48.416-.896.896-.896h7.968c.064-.032.16-.032.224-.032m3.328-8.128a3.865 3.865 0 0 1 3.872 3.872 3.865 3.865 0 0 1-3.872 3.872H7.328a.894.894 0 0 1-.896-.896c0-.48.416-.896.896-.896h14.464c1.152 0 2.08-.928 2.08-2.08s-.928-2.08-2.08-2.08-2.08.928-2.08 2.08a.894.894 0 0 1-.896.896.916.916 0 0 1-.896-.896 3.865 3.865 0 0 1 3.872-3.872"/></g></svg>

<?xml version="1.0" encoding="UTF-8" standalone="no"?>
<!DOCTYPE svg PUBLIC "-//W3C//DTD SVG 1.1//EN" "http://www.w3.org/Graphics/SVG/1.1/DTD/svg11.dtd">
<svg width="100%" height="100%" viewBox="0 0 32 32" version="1.1" xmlns="http://www.w3.org/2000/svg" xmlns:xlink="http://www.w3.org/1999/xlink" xml:space="preserve" xmlns:serif="http://www.serif.com/" style="fill-rule:evenodd;clip-rule:evenodd;stroke-linejoin:round;stroke-miterlimit:2;">
    <g transform="matrix(1,0,0,1,1.76,-3.216)">
        <path d="M16.64,19.36C16.64,20.48 15.712,21.408 14.592,21.408L3.712,21.408C3.2,21.408 2.816,20.992 2.816,20.512C2.816,20 3.232,19.616 3.712,19.616L14.592,19.616C14.72,19.616 14.848,19.52 14.848,19.36C14.848,19.2 14.752,19.104 14.592,19.104C14.08,19.104 13.696,18.688 13.696,18.208C13.696,17.728 14.112,17.312 14.592,17.312C15.712,17.312 16.64,18.24 16.64,19.36ZM18.464,24.16C19.584,24.16 20.512,25.088 20.512,26.208C20.512,27.36 19.584,28.256 18.464,28.256C17.952,28.256 17.568,27.84 17.568,27.36C17.568,26.88 17.984,26.464 18.464,26.464C18.592,26.464 18.72,26.368 18.72,26.208C18.72,26.112 18.656,26.016 18.56,25.984L10.272,25.984C9.76,25.984 9.376,25.568 9.376,25.088C9.376,24.608 9.792,24.192 10.272,24.192L18.24,24.192C18.304,24.16 18.4,24.16 18.464,24.16ZM21.792,16.032C23.936,16.032 25.664,17.76 25.664,19.904C25.664,22.048 23.936,23.776 21.792,23.776L7.328,23.776C6.816,23.776 6.432,23.36 6.432,22.88C6.432,22.4 6.848,21.984 7.328,21.984L21.792,21.984C22.944,21.984 23.872,21.056 23.872,19.904C23.872,18.752 22.944,17.824 21.792,17.824C20.64,17.824 19.712,18.752 19.712,19.904C19.712,20.416 19.296,20.8 18.816,20.8C18.336,20.8 17.92,20.384 17.92,19.904C17.92,17.76 19.648,16.032 21.792,16.032Z"/>
    </g>
    <g transform="matrix(1,0,0,1,1.76,-3.216)">
        <path d="M7.712,19.136C8.096,19.136 8.416,18.912 8.512,18.624C8.576,18.496 8.608,18.368 8.64,18.24C8.64,16.864 9.408,15.648 10.528,15.04C11.04,14.784 11.616,14.624 12.224,14.624C12.416,14.624 12.64,14.624 12.864,14.688C13.408,14.848 13.92,15.136 14.304,15.392C14.72,15.648 15.264,15.552 15.552,15.136C15.808,14.72 15.712,14.176 15.296,13.888C15.136,13.76 14.944,13.664 14.752,13.536C15.52,12.544 16.704,11.968 17.984,11.968C19.904,11.968 21.568,13.248 22.016,15.104C22.144,15.584 22.624,15.904 23.104,15.776C23.584,15.648 23.904,15.168 23.776,14.688C23.136,12.032 20.768,10.176 18.016,10.176C16,10.176 14.144,11.168 13.056,12.864C12.8,12.8 12.544,12.768 12.256,12.768C9.248,12.768 6.816,15.2 6.816,18.208L6.816,18.24C6.816,18.72 7.2,19.136 7.712,19.136Z" style="fill-rule:nonzero;"/>
    </g>
</svg>
